X:3088
T:Cleggs Hornpipe. JC.120
T:College Hornpipe,aka. JC.120
M:C|
L:1/8
Q:145
S:John Clare,Poet,Helpston. (1793-1864)
R:Hornpipe
O:England
A:Northamptonshire
N:
Z:P Headford
K:Bb
(BA)|B2B,2B,2FG|D2B2B2cB|A2f2f2ga|!
bagf gfed|edec BAGF|GBAc Bdec|d2B2B2:|!
|:FE|DFBD DFBD|G2E2E2ED|EGcA EGcA|A2F2F2ed|!
e2g2gfed|cdec BAGF|GBAc Bdce|d2B2B2:|]
W:Watch out for the missing bar.


